assets/img/braze_icons/user-square.svg

<svg fill="none" height="24" viewBox="0 0 24 24" width="24" xmlns="http://www.w3.org/2000/svg"><g clip-rule="evenodd" fill="#801ed7" fill-rule="evenodd"><path d="m7 9.5c0-2.76142 2.23858-5 5-5 2.7614 0 5 2.23858 5 5 0 2.7614-2.2386 5-5 5-2.76142 0-5-2.2386-5-5z"/><path d="m17.2413 1h-10.4826c-.80496-.000012-1.46933-.000022-2.01052.04419-.5621.04593-1.07881.14449-1.56414.39179-.75265.38349-1.36457.99541-1.74806 1.74806-.2473.48533-.34586 1.00204-.39179 1.56414-.044212.54119-.044202 1.20554-.04419 2.01051v10.48261c-.000012.805-.000022 1.4693.04419 2.0105.04593.5621.14449 1.0788.39179 1.5642.38349.7526.99541 1.3645 1.74806 1.748.48533.2473 1.00204.3459 1.56414.3918.54119.0442 1.20554.0442 2.0105.0442h10.48262c.805 0 1.4693 0 2.0105-.0442.5621-.0459 1.0788-.1445 1.5642-.3918.7526-.3835 1.3645-.9954 1.748-1.748.2473-.4854.3459-1.0021.3918-1.5642.0442-.5412.0442-1.2055.0442-2.0105v-10.48262c0-.80496 0-1.46931-.0442-2.0105-.0459-.5621-.1445-1.07881-.3918-1.56414-.3835-.75265-.9954-1.36457-1.748-1.74806-.4854-.2473-1.0021-.34586-1.5642-.39179-.5412-.044212-1.2055-.044202-2.0105-.04419zm-13.14928 2.21799c.1564-.07969.3806-.14462.81902-.18044.45009-.03677 1.03238-.03755 1.88896-.03755h10.4c.8566 0 1.4389.00078 1.889.03755.4384.03582.6626.10075.819.18044.3763.19174.6823.49771.874.87403.0797.1564.1446.3806.1804.81902.0368.45009.0376 1.03238.0376 1.88896v10.4c0 .8566-.0008 1.4389-.0376 1.889-.0259.3176-.0671.5227-.1182.6712-.5132-2.0104-2.2364-3.5275-4.3541-3.7361-.2454-.0242-.5236-.0241-.9322-.0241h-7.11575c-.4086 0-.68687-.0001-.93223.0241-2.11771.2086-3.84091 1.7257-4.35414 3.7361-.05105-.1484-.09228-.3536-.11823-.6712-.03677-.4501-.03755-1.0324-.03755-1.889v-10.4c0-.85658.00078-1.43887.03755-1.88896.03582-.43842.10075-.66262.18044-.81902.19174-.37632.49771-.68229.87403-.87403z"/></g></svg>

<svg width="24" height="24" viewBox="0 0 24 24" fill="none" xmlns="http://www.w3.org/2000/svg">
<path fill-rule="evenodd" clip-rule="evenodd" d="M7 9.5C7 6.73858 9.23858 4.5 12 4.5C14.7614 4.5 17 6.73858 17 9.5C17 12.2614 14.7614 14.5 12 14.5C9.23858 14.5 7 12.2614 7 9.5Z" fill="#801ED7"/>
<path fill-rule="evenodd" clip-rule="evenodd" d="M17.2413 1H6.7587C5.95374 0.999988 5.28937 0.999978 4.74818 1.04419C4.18608 1.09012 3.66937 1.18868 3.18404 1.43598C2.43139 1.81947 1.81947 2.43139 1.43598 3.18404C1.18868 3.66937 1.09012 4.18608 1.04419 4.74818C0.999978 5.28937 0.999988 5.95372 1 6.75869V17.2413C0.999988 18.0463 0.999978 18.7106 1.04419 19.2518C1.09012 19.8139 1.18868 20.3306 1.43598 20.816C1.81947 21.5686 2.43139 22.1805 3.18404 22.564C3.66937 22.8113 4.18608 22.9099 4.74818 22.9558C5.28937 23 5.95372 23 6.75868 23H17.2413C18.0463 23 18.7106 23 19.2518 22.9558C19.8139 22.9099 20.3306 22.8113 20.816 22.564C21.5686 22.1805 22.1805 21.5686 22.564 20.816C22.8113 20.3306 22.9099 19.8139 22.9558 19.2518C23 18.7106 23 18.0463 23 17.2413V6.75868C23 5.95372 23 5.28937 22.9558 4.74818C22.9099 4.18608 22.8113 3.66937 22.564 3.18404C22.1805 2.43139 21.5686 1.81947 20.816 1.43598C20.3306 1.18868 19.8139 1.09012 19.2518 1.04419C18.7106 0.999978 18.0463 0.999988 17.2413 1ZM4.09202 3.21799C4.24842 3.1383 4.47262 3.07337 4.91104 3.03755C5.36113 3.00078 5.94342 3 6.8 3H17.2C18.0566 3 18.6389 3.00078 19.089 3.03755C19.5274 3.07337 19.7516 3.1383 19.908 3.21799C20.2843 3.40973 20.5903 3.7157 20.782 4.09202C20.8617 4.24842 20.9266 4.47262 20.9624 4.91104C20.9992 5.36113 21 5.94342 21 6.8V17.2C21 18.0566 20.9992 18.6389 20.9624 19.089C20.9365 19.4066 20.8953 19.6117 20.8442 19.7602C20.331 17.7498 18.6078 16.2327 16.4901 16.0241C16.2447 15.9999 15.9665 16 15.5579 16H8.44215C8.03355 16 7.75528 15.9999 7.50992 16.0241C5.39221 16.2327 3.66901 17.7498 3.15578 19.7602C3.10473 19.6118 3.0635 19.4066 3.03755 19.089C3.00078 18.6389 3 18.0566 3 17.2V6.8C3 5.94342 3.00078 5.36113 3.03755 4.91104C3.07337 4.47262 3.1383 4.24842 3.21799 4.09202C3.40973 3.7157 3.7157 3.40973 4.09202 3.21799Z" fill="#801ED7"/>
</svg>
